!!!COM: Mozart
!!!OTL: 9 Variationen uber ein Minuett von Duport
!!!Variation: Theme c
**function	**harm	**kern	**kern
*	*	*clefF4	*clefG2
*	*	*k[f#c#]	*k[f#c#]
*M3/4	*M3/4	*M3/4	*M3/4
*D:	*D:	*D:	*D
=9	=9	=9	=9
2.D	2.V	4AA 4A	4a 4cc# 4ee
.	.	4r	4a 4cc# 4ee
.	.	4r	4a 4cc# 4ee
=10	=10	=10	=10
2.D	2.V	8r	2.a 2.cc# 2.ee
.	.	(8AA	.
.	.	8C#L	.
.	.	8EJ	.
.	.	8AL	.
.	.	8AAJ	.
=11	=11	=11	=11
2.T	2.I	4D)	4a 4dd 4ff#
.	.	4r	4a 4dd 4ff#
.	.	4r	4a 4dd 4ff#
=12	=12	=12	=12
2.T	2.I	8r	2.a 2.dd 2.ff#
.	.	(8D	.
.	.	8F#L	.
.	.	8AJ	.
.	.	8dL	.
.	.	8DJ)	.
*	*	*clefG2	*
=13	=13	=13	=13
*	*	*^	*
2.T	2.I	(8f#L	2.d	4aa
.	.	8aJ	.	.
.	.	8f#L	.	(8ddL
.	.	8aJ	.	8ff#J
.	.	8f#L	.	8aaL
.	.	8aJ	.	8dddJ
=14	=14	=14	=14	=14
2.T	2.I	8f#L	2.d	4aa)
.	.	8aJ	.	.
.	.	8f#L	.	(8ddL
.	.	8aJ	.	8ff#J
.	.	8f#L	.	8aaL
.	.	8aJ	.	8dddJ
*	*	*v	*v	*
=15	=15	=15	=15
4T	4I	8dL 8f#	4aa
.	.	8aJ	.
4T	4V7b	8c#L 8e	4gg
.	.	8aJ	.
4T	4I	8dL 8f#	4ff#)
.	.	8aJ)	.
=16	=16	=16	=16
.	.	.	(q64ff#
4D	4V	4A 4c#	4ee)
*-	*-	*-	*-
